src/scalable/apps/internet-chat.svg

<?xml version="1.0" encoding="UTF-8" standalone="no"?>
<svg
   xmlns:dc="http://purl.org/dc/elements/1.1/"
   xmlns:cc="http://creativecommons.org/ns#"
   xmlns:rdf="http://www.w3.org/1999/02/22-rdf-syntax-ns#"
   xmlns:svg="http://www.w3.org/2000/svg"
   xmlns="http://www.w3.org/2000/svg"
   xmlns:xlink="http://www.w3.org/1999/xlink"
   xmlns:sodipodi="http://sodipodi.sourceforge.net/DTD/sodipodi-0.dtd"
   xmlns:inkscape="http://www.inkscape.org/namespaces/inkscape"
   id="svg6955"
   height="64"
   width="64"
   version="1.1"
   sodipodi:docname="internet-chat.svg"
   inkscape:version="0.92.4 (5da689c313, 2019-01-14)">
  <sodipodi:namedview
     pagecolor="#ffffff"
     bordercolor="#666666"
     borderopacity="1"
     objecttolerance="10"
     gridtolerance="10"
     guidetolerance="10"
     inkscape:pageopacity="0"
     inkscape:pageshadow="2"
     inkscape:window-width="1366"
     inkscape:window-height="695"
     id="namedview39"
     showgrid="false"
     inkscape:zoom="1.84375"
     inkscape:cx="-101.31791"
     inkscape:cy="41.017823"
     inkscape:window-x="0"
     inkscape:window-y="0"
     inkscape:window-maximized="1"
     inkscape:current-layer="svg6955" />
  <defs
     id="defs6957">
    <linearGradient
       id="linearGradient4566">
      <stop
         id="stop4568"
         offset="0"
         style="stop-color:#000000;stop-opacity:1;" />
      <stop
         id="stop4570"
         offset="1"
         style="stop-color:#000000;stop-opacity:0;" />
    </linearGradient>
    <linearGradient
       id="linearGradient4223">
      <stop
         id="stop4225"
         style="stop-color:#d1ff82;stop-opacity:1"
         offset="0" />
      <stop
         id="stop4227"
         style="stop-color:#9bdb4d;stop-opacity:1"
         offset="0.26238" />
      <stop
         id="stop4229"
         style="stop-color:#68b723;stop-opacity:1"
         offset="0.66093999" />
      <stop
         id="stop4231"
         style="stop-color:#3a9104;stop-opacity:1"
         offset="1" />
    </linearGradient>
    <linearGradient
       id="linearGradient4546">
      <stop
         id="stop4548"
         style="stop-color:#ffffff;stop-opacity:1"
         offset="0" />
      <stop
         id="stop4550"
         style="stop-color:#ffffff;stop-opacity:0.23529412"
         offset="0.33333334" />
      <stop
         id="stop4552"
         style="stop-color:#ffffff;stop-opacity:0.15686275"
         offset="0.95056331" />
      <stop
         id="stop4554"
         style="stop-color:#ffffff;stop-opacity:0.39215687"
         offset="1" />
    </linearGradient>
    <linearGradient
       id="linearGradient4129">
      <stop
         id="stop4131"
         style="stop-color:#8cd5ff;stop-opacity:1"
         offset="0" />
      <stop
         id="stop4133"
         style="stop-color:#64baff;stop-opacity:1"
         offset="0.26238" />
      <stop
         id="stop4135"
         style="stop-color:#3689e6;stop-opacity:1"
         offset="0.704952" />
      <stop
         id="stop4137"
         style="stop-color:#0d52bf;stop-opacity:1"
         offset="1" />
    </linearGradient>
    <radialGradient
       r="18"
       fy="38"
       fx="26"
       cy="38"
       cx="26"
       gradientTransform="matrix(1,0,0,0.33333333,0,25.333333)"
       gradientUnits="userSpaceOnUse"
       id="radialGradient3997"
       xlink:href="#linearGradient4566" />
    <radialGradient
       r="26.5"
       fy="19.739857"
       fx="34.800907"
       cy="19.739857"
       cx="34.800907"
       gradientTransform="matrix(1.4637833e-7,4.5283018,-6.3396227,1.5427113e-7,157.14323,-133.58902)"
       gradientUnits="userSpaceOnUse"
       id="radialGradient3863"
       xlink:href="#linearGradient4129" />
    <clipPath
       id="clipPath3875"
       clipPathUnits="userSpaceOnUse">
      <path
         id="path3877"
         d="m 23,27 c -7.210649,0 -13,5.78935 -13,13 l 0,3 c 0,7.21065 5.789351,13 13,13 l 25,0 c 1.456363,0 2.85662,-0.221514 4.15625,-0.65625 L 52.4375,55.25 52.625,55.4375 c 2.026948,1.744171 5.01199,2.091294 7.46875,0.6875 -1.169748,-0.862286 -2.320702,-1.787499 -3.25,-2.96875 l -0.28125,-0.375 0.34375,-0.3125 C 59.42544,50.100387 61,46.750004 61,43 l 0,-3 C 61,32.78935 55.210649,27 48,27 l -25,0 z"
         style="fill:#804d4d;fill-opacity:1;stroke:none" />
    </clipPath>
    <linearGradient
       gradientUnits="userSpaceOnUse"
       y2="56"
       x2="36"
       y1="28"
       x1="36"
       id="linearGradient3885"
       xlink:href="#linearGradient4546" />
    <radialGradient
       r="26.5"
       fy="19.018763"
       fx="36"
       cy="19.018763"
       cx="36"
       gradientTransform="matrix(-1.1314701e-7,5.1320756,6.037736,1.3311414e-7,-86.830262,-176.75472)"
       gradientUnits="userSpaceOnUse"
       id="radialGradient3895"
       xlink:href="#linearGradient4223" />
    <linearGradient
       y2="56"
       x2="36"
       y1="28"
       x1="36"
       gradientUnits="userSpaceOnUse"
       id="linearGradient3897"
       xlink:href="#linearGradient4546" />
    <radialGradient
       r="18"
       fy="38"
       fx="26"
       cy="38"
       cx="26"
       gradientTransform="matrix(1,0,0,0.33333333,0,25.333333)"
       gradientUnits="userSpaceOnUse"
       id="radialGradient3901"
       xlink:href="#linearGradient4566" />
  </defs>
  <metadata
     id="metadata6960">
    <rdf:RDF>
      <cc:Work
         rdf:about="">
        <dc:format>image/svg+xml</dc:format>
        <dc:type
           rdf:resource="http://purl.org/dc/dcmitype/StillImage" />
        <dc:title />
      </cc:Work>
    </rdf:RDF>
  </metadata>
  <path
     style="fill:#b1ee4a;fill-opacity:1;stroke:#206b00;stroke-width:1;stroke-opacity:0.49803922"
     d="m 41,6.5000004 c 7.479,0 13.5,6.0209986 13.5,13.4999996 l 0,3 c 0,7.479001 -6.021,13.5 -13.5,13.5 l -25,0 c -1.508329,0 -2.960202,-0.235146 -4.3125,-0.6875 -2.1919151,1.886124 -5.4164201,2.277714 -8.0625001,0.75 -0.182011,-0.105084 -0.36239,-0.225315 -0.53125,-0.34375 1.356763,-0.917691 2.607943,-2.042474 3.65625,-3.375 -2.6157,-2.459095 -4.25,-5.953705 -4.25,-9.84375 l 0,-3 c 0,-7.479001 6.021,-13.4999996 13.5000001,-13.4999996 l 25,0 z"
     id="path3887" />
  <path
     id="rect3064"
     d="M 23 26.5 C 15.521 26.5 9.5 32.520999 9.5 40 L 9.5 43 C 9.5 50.479001 15.521 56.5 23 56.5 L 48 56.5 C 49.508329 56.5 50.960202 56.264854 52.3125 55.8125 C 54.504415 57.698624 57.72892 58.090214 60.375 56.5625 C 60.557011 56.457416 60.73739 56.337185 60.90625 56.21875 C 59.549487 55.301059 58.298307 54.176276 57.25 52.84375 C 59.8657 50.384655 61.5 46.890045 61.5 43 L 61.5 40 C 61.5 32.520999 55.479 26.5 48 26.5 L 23 26.5 z "
     style="fill:#51c0ff;fill-opacity:1;stroke:#002e99;stroke-width:1;stroke-opacity:0.49803922;opacity:0.9" />
  <path
     style="opacity:0.4;fill:#002e99;fill-opacity:1;stroke:none"
     d="m 20,46 c -1.104569,0 -2,0.895431 -2,2 0,1.104569 0.895431,2 2,2 1.104569,0 2,-0.895431 2,-2 0,-1.104569 -0.895431,-2 -2,-2 z m 6,0 c -1.104569,0 -2,0.895431 -2,2 0,1.104569 0.895431,2 2,2 1.104569,0 2,-0.895431 2,-2 0,-1.104569 -0.895431,-2 -2,-2 z m 6,0 c -1.104569,0 -2,0.895431 -2,2 0,1.104569 0.895431,2 2,2 1.104569,0 2,-0.895431 2,-2 0,-1.104569 -0.895431,-2 -2,-2 z"
     id="path4038" />
</svg>

<svg xmlns="http://www.w3.org/2000/svg" height="64" width="64"><path d="M41 6.5A13.47 13.47 0 0 1 54.5 20v3A13.47 13.47 0 0 1 41 36.5H16c-1.508 0-2.96-.235-4.313-.688a6.995 6.995 0 0 1-8.062.75 7.275 7.275 0 0 1-.531-.343 16.15 16.15 0 0 0 3.656-3.375A13.46 13.46 0 0 1 2.5 23v-3A13.47 13.47 0 0 1 16 6.5h25z" fill="#b1ee4a" stroke="#206b00" stroke-opacity=".498"/><path d="M23 26.5A13.47 13.47 0 0 0 9.5 40v3A13.47 13.47 0 0 0 23 56.5h25c1.508 0 2.96-.235 4.313-.688a6.995 6.995 0 0 0 8.062.75c.182-.105.362-.225.531-.343a16.15 16.15 0 0 1-3.656-3.375A13.46 13.46 0 0 0 61.5 43v-3A13.47 13.47 0 0 0 48 26.5H23z" fill="#51c0ff" stroke="#002e99" stroke-opacity=".498" opacity=".9"/><path d="M20 46a2 2 0 1 0 0 4 2 2 0 0 0 0-4zm6 0a2 2 0 1 0 0 4 2 2 0 0 0 0-4zm6 0a2 2 0 1 0 0 4 2 2 0 0 0 0-4z" opacity=".4" fill="#002e99"/></svg>
